trunk/WorldWind/resources/milstd2525/icons/ems/ehfaic---------.svg

<?xml version="1.0" encoding="UTF-8" standalone="no"?>
<!--
Copyright (C) 2012 United States Government as represented by the Administrator of the
National Aeronautics and Space Administration.
All Rights Reserved.
-->

<!--
MIL-STD-2525 tactical symbol icon image. During icon composition this image is multiplied by the desired frame color 
(e.g. black), then drawn on top of the frame and fill.
-->

<svg
   xmlns:dc="http://purl.org/dc/elements/1.1/"
   xmlns:cc="http://creativecommons.org/ns#"
   xmlns:rdf="http://www.w3.org/1999/02/22-rdf-syntax-ns#"
   xmlns:svg="http://www.w3.org/2000/svg"
   xmlns="http://www.w3.org/2000/svg"
   xmlns:sodipodi="http://sodipodi.sourceforge.net/DTD/sodipodi-0.dtd"
   xmlns:inkscape="http://www.inkscape.org/namespaces/inkscape"
   height="400px"
   viewBox="0 0 400 400"
   width="400px"
   id="svg2"
   version="1.1"
   inkscape:version="0.48.2 r9819"
   sodipodi:docname="ehfaic---------.svg">
  <metadata
     id="metadata16">
    <rdf:RDF>
      <cc:Work
         rdf:about="">
        <dc:format>image/svg+xml</dc:format>
        <dc:type
           rdf:resource="http://purl.org/dc/dcmitype/StillImage" />
      </cc:Work>
    </rdf:RDF>
  </metadata>
  <defs
     id="defs14" />
  <sodipodi:namedview
     pagecolor="#ffffff"
     bordercolor="#666666"
     borderopacity="1"
     objecttolerance="10"
     gridtolerance="10"
     guidetolerance="10"
     inkscape:pageopacity="0"
     inkscape:pageshadow="2"
     inkscape:window-width="640"
     inkscape:window-height="480"
     id="namedview12"
     showgrid="false"
     inkscape:zoom="0.59"
     inkscape:cx="200"
     inkscape:cy="200"
     inkscape:window-x="204"
     inkscape:window-y="47"
     inkscape:window-maximized="0"
     inkscape:current-layer="svg2" />
  <g
     transform="matrix(115,0,0,115,53.999975,53.99998)"
     id="g4"
     style="stroke:#000000;stroke-width:0.05217391;stroke-miterlimit:4;stroke-opacity:1;stroke-dasharray:0.10434783, 0.05217391;stroke-dashoffset:0">
    <polygon
       points="0.757201,1.15752 0.757201,1.0255 0.43185,1.0255 0.43185,1.15752 "
       style="fill:#ffffff;stroke:#000000;stroke-width:0.05217391;stroke-miterlimit:4;stroke-opacity:1;stroke-dasharray:0.10434783, 0.05217391;stroke-dashoffset:0"
       id="polygon6" />
    <polygon
       points="2.11047,1.15752 2.11047,1.0255 1.78041,1.0255 1.78041,1.15752 "
       style="fill:#ffffff;stroke:#000000;stroke-width:0.05217391;stroke-miterlimit:4;stroke-opacity:1;stroke-dasharray:0.10434783, 0.05217391;stroke-dashoffset:0"
       id="polygon8" />
    <path
       inkscape:connector-curvature="0"
       d="m 1.19371,0.79052 0.17647,-7.83e-4 c 0.02042,0 0.05187,0.124417 0.05187,0.15089 L 1.45369,1.03391 c 0.00106,0.00761 0.0438,0.14348 0.0438,0.15191 l 0,0.01414 -0.42176,-6e-4 z M 0.761915,0.789737 1.00431,0.790323 0.926947,1.03493 c 0,0.03761 -0.042437,0.12385 -0.042437,0.15089 l 0,0.01414 -0.452661,0 0,0.1556 0.403173,8.6e-4 -0.025953,0.06516 -0.002,0.01824 -0.055933,0.18084 -0.078811,0.24887 c 0.025303,0 0.201717,0.00324 0.210441,-0.00175 C 0.887085,1.86532 0.926439,1.71963 0.933077,1.70119 0.942971,1.67371 1.03068,1.37384 1.03068,1.36971 l 0,-0.01415 L 1.54109,1.3566 1.6861,1.86953 1.90048,1.87025 1.86896,1.76739 1.85365,1.70991 1.8016,1.54023 1.78285,1.47889 1.7474,1.35556 l 0.34421,0 0,-0.1556 L 1.69632,1.19972 1.63423,1.00664 1.63099,0.988737 1.60972,0.923466 1.57294,0.789738 l 0.23104,0 0,-0.155602 -1.04206,0 0,0.155602 -4e-6,0 z"
       style="fill:#ffffff;stroke:#000000;stroke-width:0.05217391;stroke-miterlimit:4;stroke-opacity:1;stroke-dasharray:0.10434783, 0.05217391;stroke-dashoffset:0"
       id="path10" />
  </g>
</svg>

<?xml version="1.0"?>
<!--
Copyright (C) 2012 United States Government as represented by the Administrator of the
National Aeronautics and Space Administration.
All Rights Reserved.
-->

<!DOCTYPE svg PUBLIC "-//W3C//DTD SVG 1.1//EN" "http://www.w3.org/Graphics/SVG/1.1/DTD/svg11.dtd" >
<!--
MIL-STD-2525 tactical symbol icon image. During icon composition this image is multiplied by the desired frame color 
(e.g. black), then drawn on top of the frame and fill.
-->
<svg xmlns:xlink="http://www.w3.org/1999/xlink" height="400px" viewBox="0 0 400 400" width="400px"><g transform="scale(115) translate(0.469565 0.469565)"><polygon points="0.43185,1.15752 0.757201,1.15752 0.757201,1.0255 0.43185,1.0255" style="fill:rgb(255,255,255)"/><polygon points="1.78041,1.15752 2.11047,1.15752 2.11047,1.0255 1.78041,1.0255" style="fill:rgb(255,255,255)"/><path d="M1.19371 0.79052 L1.37018 0.789737 C1.3906 0.789737 1.42205 0.914154 1.42205 0.940627     L1.45369 1.03391 C1.45475 1.04152 1.49749 1.17739 1.49749 1.18582 L1.49749     1.19996 L1.07573 1.19936 zM0.761915 0.789737 L1.00431 0.790323 L0.926947     1.03493 C0.926947 1.07254 0.88451 1.15878 0.88451 1.18582 L0.88451 1.19996     L0.431849 1.19996 L0.431849 1.35556 L0.835022 1.35642 L0.809069 1.42158 L0.807069     1.43982 L0.751136 1.62066 L0.672325 1.86953 C0.697628 1.86953 0.874042     1.87277 0.882766 1.86778 C0.887085 1.86532 0.926439 1.71963 0.933077 1.70119     C0.942971 1.67371 1.03068 1.37384 1.03068 1.36971 L1.03068 1.35556 L1.54109     1.3566 L1.6861 1.86953 L1.90048 1.87025 L1.86896 1.76739 L1.85365 1.70991     L1.8016 1.54023 L1.78285 1.47889 L1.7474 1.35556 L2.09161 1.35556 L2.09161 1.19996     L1.69632 1.19972 L1.63423 1.00664 L1.63099 0.988737 L1.60972 0.923466     L1.57294 0.789738 L1.80398 0.789738 L1.80398 0.634136 L0.76192 0.634136 L0.76192     0.789738 L0.761916 0.789738 z" style="fill:rgb(255,255,255)"/></g></svg>
